resources/icons/svg/filesaveas.svg

<?xml version="1.0" encoding="UTF-8"?>
<svg id="Layer_1" data-name="Layer 1" xmlns="http://www.w3.org/2000/svg" version="1.1" viewBox="0 0 256 256">
  <defs>
    <style>
      .cls-1, .cls-2 {
        fill: #fff;
        stroke-width: 0px;
      }

      .cls-3, .cls-2 {
        isolation: isolate;
        opacity: .6;
      }
    </style>
  </defs>
  <path class="cls-2" d="M71.1,56.1v120.8c0,3.3,2.7,6.1,6.1,6.1h120.8c3.3,0,6.1-2.7,6.1-6.1v-92.7c0-1.6-.6-3.2-1.8-4.2l12.7-12.8c4.5,4.5,7,10.7,7,17.1v92.6c0,13.3-10.8,24.1-24.1,24.1h-120.8c-13.3,0-24.1-10.8-24.1-24.1V56.1c0-13.3,10.8-24.1,24.1-24.1h92.6c6.4,0,12.6,2.6,17.1,7l28.2,28.1-12.8,12.8-28.2-28.1c-.1,0-.2-.2-.3-.3v37.8c0,5-4,9.1-9.1,9.1h-72.3c-5,0-9.1-4-9.1-9.1v-39.2h-6.1c-3.2,0-6,2.7-6,6ZM101.3,50.1v30.2h54.3v-30.2h-54.3ZM113.4,140.6c0-13.4,10.8-24.1,24.1-24.1s24.1,10.8,24.1,24.1-10.8,24.1-24.1,24.1c-13.3,0-24.1-10.7-24.1-24.1Z"/>
  <g class="cls-3">
    <path class="cls-1" d="M206,227H53.5c-13.5,0-24.5-11-24.5-24.5V67.2c0-5,4-9,9-9s9,4,9,9v135.3c0,3.6,2.9,6.5,6.5,6.5h152.5c5,0,9,4,9,9s-4,9-9,9Z"/>
  </g>
</svg>

<?xml version="1.0" encoding="utf-8"?>
<!-- Generator: Adobe Illustrator 27.9.0, SVG Export Plug-In . SVG Version: 6.00 Build 0)  -->
<svg version="1.1" id="Layer_1" xmlns="http://www.w3.org/2000/svg" xmlns:xlink="http://www.w3.org/1999/xlink" x="0px" y="0px"
	 viewBox="0 0 256 256" style="enable-background:new 0 0 256 256;" xml:space="preserve">
<style type="text/css">
	.st0{opacity:0.26;fill:#FFFFFF;}
	.st1{opacity:0.26;}
	.st2{fill:#FFFFFF;}
</style>
<path class="st0" d="M71.1,56.1v120.8c0,3.3,2.7,6.1,6.1,6.1H198c3.3,0,6.1-2.7,6.1-6.1V84.2c0-1.6-0.6-3.2-1.8-4.2L215,67.2
	c4.5,4.5,7,10.7,7,17.1v92.6c0,13.3-10.8,24.1-24.1,24.1H77.1C63.8,201,53,190.2,53,176.9V56.1C53,42.8,63.8,32,77.1,32h92.6
	c6.4,0,12.6,2.6,17.1,7L215,67.1l-12.8,12.8L174,51.8c-0.1-0.1-0.2-0.2-0.3-0.3v37.8c0,5-4,9.1-9.1,9.1H92.3c-5,0-9.1-4-9.1-9.1
	V50.1h-6.1C73.9,50.1,71.1,52.8,71.1,56.1z M101.3,50.1v30.2h54.3V50.1H101.3z M113.4,140.6c0-13.4,10.8-24.1,24.1-24.1
	s24.1,10.8,24.1,24.1s-10.8,24.1-24.1,24.1C124.2,164.7,113.4,154,113.4,140.6z"/>
<g class="st1">
	<path class="st2" d="M206,227H53.5C40,227,29,216,29,202.5V67.2c0-5,4-9,9-9s9,4,9,9v135.3c0,3.6,2.9,6.5,6.5,6.5H206c5,0,9,4,9,9
		S211,227,206,227z"/>
</g>
</svg>
